src/home/img/composer-dual.svg

<svg height="411" viewBox="0 0 1124 411" width="1124" xmlns="http://www.w3.org/2000/svg" xmlns:xlink="http://www.w3.org/1999/xlink"><mask id="a" fill="#fff"><path d="m7.6916556 0h521.6166884c2.674557 0 3.644415.27847683 4.622193.80139811s1.745144 1.290287 2.268065 2.26806478.801398 1.94763649.801398 4.62219271v208.6166884c0 2.674557-.278477 3.644415-.801398 4.622193s-1.290287 1.745144-2.268065 2.268065-1.947636.801398-4.622193.801398h-521.6166884c-2.67455622 0-3.64441493-.278477-4.62219271-.801398s-1.7451435-1.290287-2.26806478-2.268065-.80139811-1.947636-.80139811-4.622193v-208.6166884c0-2.67455622.27847683-3.64441493.80139811-4.62219271s1.290287-1.7451435 2.26806478-2.26806478 1.94763649-.80139811 4.62219271-.80139811z" fill="#fff" fill-rule="evenodd"/></mask><g fill="none" fill-rule="evenodd"><path d="m0 0h1124v411h-1124z" fill="#fff"/><g fill="#512da8"><rect height="26" opacity=".26" rx="5" width="107" x="21" y="367"/><rect height="16" rx="4" width="16" x="105" y="372"/><rect height="26" opacity=".26" rx="5" width="106" x="133" y="367"/><rect height="16" rx="4" width="16" x="216" y="372"/></g><rect fill="#eceef0" height="18" rx="9" width="226.308" x="249" y="371"/><g fill="#8792a2" opacity=".24"><rect height="24" rx="7" width="26" x="21" y="75"/><rect height="24" rx="7" width="26" x="85" y="75"/><rect height="24" rx="7" width="26" x="149" y="75"/><rect height="24" rx="7" width="26" x="213" y="75"/><rect height="24" rx="7" width="26" x="277" y="75"/><rect height="24" rx="7" width="26" x="341" y="75"/><rect height="24" rx="7" width="26" x="404" y="75"/><rect height="24" rx="7" width="26" x="468" y="75"/></g><g transform="translate(955 63)"><path d="m5 0h127v42h-127c-2.76142375 0-5-2.2385763-5-5v-32c0-2.76142375 2.23857625-5 5-5z" fill="#512da8"/><g fill="#d2c9e9"><rect height="10" rx="5" width="16" x="26" y="16"/><rect height="9" rx="4.5" width="58" x="52" y="16"/><path d="m132 0h21c2.761424 0 5 2.23857625 5 5v32c0 2.7614237-2.238576 5-5 5h-21z"/></g><rect fill="#512da8" height="10" rx="3" width="9" x="141" y="16"/></g><rect height="41" rx="5" stroke="#8792a2" stroke-opacity=".24" width="97" x="847.43" y="63.545"/><rect fill="#8792a2" height="10" opacity=".176" rx="3" width="52" x="879.001" y="79"/><rect fill="#8792a2" height="10" opacity=".376" rx="3" width="14" x="860.001" y="79"/><g transform="translate(21 126)"><g fill="#8792a2" transform="translate(546)"><path d="m7.6916556 0h531.6166884c2.674557 0 3.644415.27847683 4.622193.80139811s1.745144 1.290287 2.268065 2.26806478.801398 1.94763649.801398 4.62219271v208.6166884c0 2.674557-.278477 3.644415-.801398 4.622193s-1.290287 1.745144-2.268065 2.268065-1.947636.801398-4.622193.801398h-531.6166884c-2.67455622 0-3.64441493-.278477-4.62219271-.801398s-1.7451435-1.290287-2.26806478-2.268065-.80139811-1.947636-.80139811-4.622193v-208.6166884c0-2.67455622.27847683-3.64441493.80139811-4.62219271s1.290287-1.7451435 2.26806478-2.26806478 1.94763649-.80139811 4.62219271-.80139811z" opacity=".081"/><rect height="14" opacity=".341" rx="7" width="168.46" x="20.81" y="56"/><rect height="14" opacity=".341" rx="7" width="286.382" x="194.225" y="56"/><rect height="14" opacity=".341" rx="7" width="210.08" x="62.429" y="84"/><rect height="14" opacity=".341" rx="7" width="110.986" x="62.429" y="140"/><rect height="14" opacity=".341" rx="7" width="184.315" x="62.429" y="112"/><rect height="8" opacity=".441" rx="4" width="11.891" x="40.629" y="85"/><rect height="8" opacity=".441" rx="4" width="11.891" x="40.629" y="141"/><rect height="8" opacity=".441" rx="4" width="11.891" x="40.629" y="113"/><rect height="14" opacity=".341" rx="7" width="283.409" x="20.81" y="168"/><rect height="14" opacity=".341" rx="7" width="153.596" x="314.129" y="168"/><rect height="14" opacity=".341" rx="7" width="307.192" x="20.81" y="196"/><rect height="14" opacity=".641" rx="7" width="127.832" x="19.819" y="23"/><rect height="14" opacity=".441" rx="7" width="127.832" x="157.56" y="22"/><rect height="8" opacity=".178" rx="3" width="66.393" x="468.716" y="19"/></g><path d="m7.6916556.5c-2.36296752 0-3.35751908.19205677-4.38639328.74230471-.89064354.47632138-1.58663623 1.17231407-2.06295761 2.06295761-.55024794 1.0288742-.74230471 2.02342576-.74230471 4.38639328v208.6166884c0 2.362968.19205677 3.357519.74230471 4.386394.47632138.890643 1.17231407 1.586636 2.06295761 2.062957 1.0288742.550248 2.02342576.742305 4.38639328.742305h521.6166884c2.362968 0 3.357519-.192057 4.386394-.742305.890643-.476321 1.586636-1.172314 2.062957-2.062957.550248-1.028875.742305-2.023426.742305-4.386394v-208.6166884c0-2.36296752-.192057-3.35751908-.742305-4.38639328-.476321-.89064354-1.172314-1.58663623-2.062957-2.06295761-1.028875-.55024794-2.023426-.74230471-4.386394-.74230471z" stroke="#8792a2" stroke-opacity=".24"/><g fill="#8792a2"><rect height="14" mask="url(#a)" opacity=".241" rx="7" width="127.81" x="29.723" y="23"/><rect height="14" mask="url(#a)" opacity=".241" rx="7" width="127.81" x="206.081" y="23"/><rect height="4" mask="url(#a)" opacity=".241" rx="2" width="19.815" x="181.312" y="33"/><rect height="4" mask="url(#a)" opacity=".241" rx="2" width="19.815" x="338.845" y="33"/><rect height="8" mask="url(#a)" opacity=".161" rx="2.972" width="5.945" x="10.899" y="19"/><rect height="8" mask="url(#a)" opacity=".161" rx="2.972" width="5.945" x="18.825" y="19"/><rect height="8" mask="url(#a)" opacity=".161" rx="2.972" width="5.945" x="162.487" y="19"/><rect height="8" mask="url(#a)" opacity=".161" rx="2.972" width="5.945" x="170.413" y="19"/><rect height="14" mask="url(#a)" opacity=".241" rx="7" width="168.432" x="10.899" y="51"/><rect height="14" mask="url(#a)" opacity=".241" rx="7" width="286.334" x="184.284" y="51"/><rect height="14" mask="url(#a)" opacity=".241" rx="7" width="210.044" x="52.511" y="79"/><rect height="14" mask="url(#a)" opacity=".241" rx="7" width="110.967" x="52.511" y="135"/><rect height="14" mask="url(#a)" opacity=".241" rx="7" width="184.284" x="52.511" y="107"/><rect height="8" mask="url(#a)" opacity=".441" rx="4" width="11.889" x="30.714" y="80"/><rect height="8" mask="url(#a)" opacity=".441" rx="4" width="11.889" x="30.714" y="136"/><rect height="8" mask="url(#a)" opacity=".441" rx="4" width="11.889" x="30.714" y="108"/><rect height="14" mask="url(#a)" opacity=".241" rx="7" width="283.362" x="10.899" y="163"/><rect height="14" mask="url(#a)" opacity=".241" rx="7" width="153.57" x="304.168" y="163"/><rect height="14" mask="url(#a)" opacity=".241" rx="7" width="307.14" x="10.899" y="191"/><rect height="8" mask="url(#a)" opacity=".178" rx="3" width="66.382" x="460.71" y="19"/></g></g><rect fill="#8792a2" height="28" opacity=".241" rx="14" width="621" x="21" y="20"/><g transform="translate(1049 329)"><rect fill="#512da8" height="64" rx="32" transform="matrix(1 0 0 -1 0 64)" width="64"/><path d="m31.997505 15.9992528c1.1045695 0 2 .8954305 2 2v12h13c1.1045695 0 2 .8954305 2 2s-.8954305 2-2 2h-13v13c0 1.1045695-.8954305 2-2 2s-2-.8954305-2-2v-13h-13c-1.1045695 0-2-.8954305-2-2s.8954305-2 2-2h13v-12c0-1.1045695.8954305-2 2-2z" fill="#fff" opacity=".904"/></g></g></svg>

<svg xmlns="http://www.w3.org/2000/svg" xmlns:xlink="http://www.w3.org/1999/xlink" width="1124" height="411" viewBox="0 0 1124 411">
  <defs>
    <path id="composer-dual-a" d="M7.6916556,-3.10752092e-16 L529.308344,3.10752092e-16 C531.982901,-1.80555915e-16 532.952759,0.278476833 533.930537,0.801398111 C534.908315,1.32431939 535.675681,2.09168511 536.198602,3.06946289 C536.721523,4.04724067 537,5.01709938 537,7.6916556 L537,216.308344 C537,218.982901 536.721523,219.952759 536.198602,220.930537 C535.675681,221.908315 534.908315,222.675681 533.930537,223.198602 C532.952759,223.721523 531.982901,224 529.308344,224 L7.6916556,224 C5.01709938,224 4.04724067,223.721523 3.06946289,223.198602 C2.09168511,222.675681 1.32431939,221.908315 0.801398111,220.930537 C0.278476833,219.952759 1.2037061e-16,218.982901 -2.07168062e-16,216.308344 L2.07168062e-16,7.6916556 C-1.2037061e-16,5.01709938 0.278476833,4.04724067 0.801398111,3.06946289 C1.32431939,2.09168511 2.09168511,1.32431939 3.06946289,0.801398111 C4.04724067,0.278476833 5.01709938,1.80555915e-16 7.6916556,-3.10752092e-16 Z"/>
  </defs>
  <g fill="none" fill-rule="evenodd">
    <rect width="1124" height="411" fill="#FFF"/>
    <g transform="translate(21 20)">
      <g transform="translate(0 347)">
        <rect width="107" height="26" fill="#512DA8" opacity=".26" rx="5"/>
        <rect width="16" height="16" x="84" y="5" fill="#512DA8" rx="4"/>
        <rect width="106" height="26" x="112" fill="#512DA8" opacity=".26" rx="5"/>
        <rect width="16" height="16" x="195" y="5" fill="#512DA8" rx="4"/>
        <rect width="226.308" height="18" x="228" y="4" fill="#ECEEF0" rx="9"/>
      </g>
      <g transform="translate(0 43)">
        <g fill="#8792A2" opacity=".24" transform="translate(0 12)">
          <rect width="26" height="24" rx="7"/>
          <rect width="26" height="24" x="64" rx="7"/>
          <rect width="26" height="24" x="128" rx="7"/>
          <rect width="26" height="24" x="192" rx="7"/>
          <rect width="26" height="24" x="256" rx="7"/>
          <rect width="26" height="24" x="320" rx="7"/>
          <rect width="26" height="24" x="383" rx="7"/>
          <rect width="26" height="24" x="447" rx="7"/>
        </g>
        <g transform="translate(825.93)">
          <g transform="translate(108.07)">
            <path fill="#512DA8" d="M5,0 L132,0 L132,0 L132,42 L5,42 C2.23857625,42 3.38176876e-16,39.7614237 0,37 L0,5 C-3.38176876e-16,2.23857625 2.23857625,5.07265313e-16 5,0 Z"/>
            <rect width="16" height="10" x="26" y="16" fill="#D2C9E9" rx="5"/>
            <rect width="58" height="9" x="52" y="16" fill="#D2C9E9" rx="4.5"/>
            <path fill="#D2C9E9" d="M132,0 L153,0 C155.761424,-5.07265313e-16 158,2.23857625 158,5 L158,37 C158,39.7614237 155.761424,42 153,42 L132,42 L132,42 L132,0 Z"/>
            <rect width="9" height="10" x="141" y="16" fill="#512DA8" rx="3"/>
          </g>
          <rect width="97" height="41" x=".5" y=".545" stroke="#8792A2" stroke-opacity=".24" rx="5"/>
          <rect width="52" height="10" x="32.071" y="16" fill="#8792A2" opacity=".176" rx="3"/>
          <rect width="14" height="10" x="13.071" y="16" fill="#8792A2" opacity=".376" rx="3"/>
        </g>
      </g>
      <g transform="translate(0 106)">
        <g fill="#8792A2" transform="translate(546)">
          <path d="M7.6916556,-3.10752092e-16 L539.308344,3.10752092e-16 C541.982901,-1.80555915e-16 542.952759,0.278476833 543.930537,0.801398111 C544.908315,1.32431939 545.675681,2.09168511 546.198602,3.06946289 C546.721523,4.04724067 547,5.01709938 547,7.6916556 L547,216.308344 C547,218.982901 546.721523,219.952759 546.198602,220.930537 C545.675681,221.908315 544.908315,222.675681 543.930537,223.198602 C542.952759,223.721523 541.982901,224 539.308344,224 L7.6916556,224 C5.01709938,224 4.04724067,223.721523 3.06946289,223.198602 C2.09168511,222.675681 1.32431939,221.908315 0.801398111,220.930537 C0.278476833,219.952759 1.2037061e-16,218.982901 -2.07168062e-16,216.308344 L2.07168062e-16,7.6916556 C-1.2037061e-16,5.01709938 0.278476833,4.04724067 0.801398111,3.06946289 C1.32431939,2.09168511 2.09168511,1.32431939 3.06946289,0.801398111 C4.04724067,0.278476833 5.01709938,1.80555915e-16 7.6916556,-3.10752092e-16 Z" opacity=".081"/>
          <rect width="168.46" height="14" x="20.81" y="56" opacity=".341" rx="7"/>
          <rect width="286.382" height="14" x="194.225" y="56" opacity=".341" rx="7"/>
          <rect width="210.08" height="14" x="62.429" y="84" opacity=".341" rx="7"/>
          <rect width="110.986" height="14" x="62.429" y="140" opacity=".341" rx="7"/>
          <rect width="184.315" height="14" x="62.429" y="112" opacity=".341" rx="7"/>
          <rect width="11.891" height="8" x="40.629" y="85" opacity=".441" rx="4"/>
          <rect width="11.891" height="8" x="40.629" y="141" opacity=".441" rx="4"/>
          <rect width="11.891" height="8" x="40.629" y="113" opacity=".441" rx="4"/>
          <rect width="283.409" height="14" x="20.81" y="168" opacity=".341" rx="7"/>
          <rect width="153.596" height="14" x="314.129" y="168" opacity=".341" rx="7"/>
          <rect width="307.192" height="14" x="20.81" y="196" opacity=".341" rx="7"/>
          <rect width="127.832" height="14" x="19.819" y="23" opacity=".641" rx="7"/>
          <rect width="127.832" height="14" x="157.56" y="22" opacity=".441" rx="7"/>
          <rect width="66.393" height="8" x="468.716" y="19" opacity=".178" rx="3"/>
        </g>
        <mask id="composer-dual-b" fill="#fff">
          <use xlink:href="#composer-dual-a"/>
        </mask>
        <path stroke="#8792A2" stroke-opacity=".24" d="M7.6916556,0.5 C5.32868808,0.5 4.33413652,0.692056765 3.30526232,1.24230471 C2.41461878,1.71862609 1.71862609,2.41461878 1.24230471,3.30526232 C0.692056765,4.33413652 0.5,5.32868808 0.5,7.6916556 L0.5,216.308344 C0.5,218.671312 0.692056765,219.665863 1.24230471,220.694738 C1.71862609,221.585381 2.41461878,222.281374 3.30526232,222.757695 C4.33413652,223.307943 5.32868808,223.5 7.6916556,223.5 L529.308344,223.5 C531.671312,223.5 532.665863,223.307943 533.694738,222.757695 C534.585381,222.281374 535.281374,221.585381 535.757695,220.694738 C536.307943,219.665863 536.5,218.671312 536.5,216.308344 L536.5,7.6916556 C536.5,5.32868808 536.307943,4.33413652 535.757695,3.30526232 C535.281374,2.41461878 534.585381,1.71862609 533.694738,1.24230471 C532.665863,0.692056765 531.671312,0.5 529.308344,0.5 L7.6916556,0.5 Z"/>
        <rect width="127.81" height="14" x="29.723" y="23" fill="#8792A2" mask="url(#composer-dual-b)" opacity=".241" rx="7"/>
        <rect width="127.81" height="14" x="206.081" y="23" fill="#8792A2" mask="url(#composer-dual-b)" opacity=".241" rx="7"/>
        <rect width="19.815" height="4" x="181.312" y="33" fill="#8792A2" mask="url(#composer-dual-b)" opacity=".241" rx="2"/>
        <rect width="19.815" height="4" x="338.845" y="33" fill="#8792A2" mask="url(#composer-dual-b)" opacity=".241" rx="2"/>
        <rect width="5.945" height="8" x="10.899" y="19" fill="#8792A2" mask="url(#composer-dual-b)" opacity=".161" rx="2.972"/>
        <rect width="5.945" height="8" x="18.825" y="19" fill="#8792A2" mask="url(#composer-dual-b)" opacity=".161" rx="2.972"/>
        <rect width="5.945" height="8" x="162.487" y="19" fill="#8792A2" mask="url(#composer-dual-b)" opacity=".161" rx="2.972"/>
        <rect width="5.945" height="8" x="170.413" y="19" fill="#8792A2" mask="url(#composer-dual-b)" opacity=".161" rx="2.972"/>
        <rect width="168.432" height="14" x="10.899" y="51" fill="#8792A2" mask="url(#composer-dual-b)" opacity=".241" rx="7"/>
        <rect width="286.334" height="14" x="184.284" y="51" fill="#8792A2" mask="url(#composer-dual-b)" opacity=".241" rx="7"/>
        <rect width="210.044" height="14" x="52.511" y="79" fill="#8792A2" mask="url(#composer-dual-b)" opacity=".241" rx="7"/>
        <rect width="110.967" height="14" x="52.511" y="135" fill="#8792A2" mask="url(#composer-dual-b)" opacity=".241" rx="7"/>
        <rect width="184.284" height="14" x="52.511" y="107" fill="#8792A2" mask="url(#composer-dual-b)" opacity=".241" rx="7"/>
        <rect width="11.889" height="8" x="30.714" y="80" fill="#8792A2" mask="url(#composer-dual-b)" opacity=".441" rx="4"/>
        <rect width="11.889" height="8" x="30.714" y="136" fill="#8792A2" mask="url(#composer-dual-b)" opacity=".441" rx="4"/>
        <rect width="11.889" height="8" x="30.714" y="108" fill="#8792A2" mask="url(#composer-dual-b)" opacity=".441" rx="4"/>
        <rect width="283.362" height="14" x="10.899" y="163" fill="#8792A2" mask="url(#composer-dual-b)" opacity=".241" rx="7"/>
        <rect width="153.57" height="14" x="304.168" y="163" fill="#8792A2" mask="url(#composer-dual-b)" opacity=".241" rx="7"/>
        <rect width="307.14" height="14" x="10.899" y="191" fill="#8792A2" mask="url(#composer-dual-b)" opacity=".241" rx="7"/>
        <rect width="66.382" height="8" x="460.71" y="19" fill="#8792A2" mask="url(#composer-dual-b)" opacity=".178" rx="3"/>
      </g>
      <rect width="621" height="28" fill="#8792A2" opacity=".241" rx="14"/>
    </g>
    <g transform="translate(1049 329)">
      <rect width="64" height="64" fill="#512DA8" rx="32" transform="matrix(1 0 0 -1 0 64)"/>
      <path fill="#FFF" d="M31.997505,15.9992528 C33.1020745,15.9992528 33.997505,16.8946833 33.997505,17.9992528 L33.997505,29.9992528 L46.997505,29.9992528 C48.1020745,29.9992528 48.997505,30.8946833 48.997505,31.9992528 C48.997505,33.1038223 48.1020745,33.9992528 46.997505,33.9992528 L33.997505,33.9992528 L33.997505,46.9992528 C33.997505,48.1038223 33.1020745,48.9992528 31.997505,48.9992528 C30.8929355,48.9992528 29.997505,48.1038223 29.997505,46.9992528 L29.997505,33.9992528 L16.997505,33.9992528 C15.8929355,33.9992528 14.997505,33.1038223 14.997505,31.9992528 C14.997505,30.8946833 15.8929355,29.9992528 16.997505,29.9992528 L29.997505,29.9992528 L29.997505,17.9992528 C29.997505,16.8946833 30.8929355,15.9992528 31.997505,15.9992528 Z" opacity=".904"/>
    </g>
  </g>
</svg>
